X:262
T:score62
L:1/8
Q:1/4=96
M:1/4
I:linebreak $
K:C
 (GF |[M:4/4] E2 Gc B2 Gd | c2 e2) z2 (cB | A2 fd c2 B2 | c4) z2 (e^d |$ e2 Bd c2 BA | %6
 B2 E2) z2 (e^d | e2 Bd c2 de | d4) |] %9
